public/images/constellation-peer.svg

<svg fill="none" height="195" viewBox="0 0 185 195" width="185" xmlns="http://www.w3.org/2000/svg" xmlns:xlink="http://www.w3.org/1999/xlink"><clipPath id="a"><path d="m0 0h178.666v168.218h-178.666z" transform="matrix(.09050222 .99589625 -.99589625 .09050222 168.034 .933716)"/></clipPath><g clip-path="url(#a)"><path d="m81.1825 135.211c-1.0872-.637-1.432-2.004-.8686-3.086.6363-1.088 2.0019-1.433 3.0824-.869 1.0873.638 1.4321 2.005.8687 3.086-.6363 1.089-2.0019 1.434-3.0825.869z" fill="#0b2c41"/><path d="m119.187 106.372c-1.836-1.079-2.421-3.385-1.468-5.22 1.078-1.8376 3.381-2.4231 5.206-1.4681 1.825.9551 2.421 3.3851 1.468 5.2201-1.077 1.838-3.381 2.423-5.206 1.468z" fill="#0b2c41"/><path d="m150.568 37.2116c-1.096-.598-56.2466-23.0346-56.2466-23.0346l-53.9551 70.9299 41.1936 48.3871 49.3571 19.843 33.051-48.879z" stroke="#0b2c41" stroke-miterlimit="10"/><path d="m94.3213 14.177 27.6117 89.931-40.3732 29.386" stroke="#0b2c41" stroke-miterlimit="10"/><path d="m15.8882 83.1617c1.0957.598 24.4781 1.9453 24.4781 1.9453" stroke="#0b2c41" stroke-miterlimit="10"/><path d="m131.103 174.514-.186-21.177 19.651-116.1254-110.2016 47.8954 81.5666 19.001 42.035.35" stroke="#0b2c41" stroke-miterlimit="10"/><path d="m21.6871 80.7222-4.7032 3.0375 3.0809 4.6109-4.8971-2.5413-2.4844 5.054-.2997-5.6239-5.55753.4423 4.70323-3.0374-3.10348-4.6873 4.99518 2.5872 2.4166-5.0243.2616 5.549z" fill="#ffa135"/><path d="m101.398 12.7031-4.7034 3.0375 3.0731 4.6116-4.897-2.5413-2.4845 5.054-.2919-5.6247-5.5653.4431 4.7032-3.0374-3.1034-4.68726 5.0029 2.58646 2.4089-5.02355.2693 5.54825z" fill="#ffa135"/><path d="m139.141 175.955-5.24 1.957 2.027 5.161-4.25-3.524-3.498 4.409.912-5.554-5.533-.759 5.246-1.966-2.041-5.238 4.335 3.595 3.421-4.394-.912 5.475z" fill="#ffa135"/><path d="m105.849 58.5816c-1.084-.6383-1.435-2.0015-.868-3.0876.638-1.0847 1.999-1.4358 3.084-.8682 1.085.5677 1.435 2.0016.868 3.0877-.637 1.0847-1.999 1.4357-3.084.8681z" fill="#0b2c41"/><path d="m39.4164 87.3174c-1.0836-.6383-1.4346-2.0016-.8678-3.0877.6374-1.0847 1.999-1.4357 3.084-.8681s1.4346 2.0016.8678 3.0877c-.6374 1.0847-1.999 1.4357-3.084.8681z" fill="#0b2c41"/><path d="m139.353 106.695c-1.32.12-2.506-.87-2.626-2.191-.12-1.322.868-2.509 2.188-2.629s2.506.87 2.626 2.191c.12 1.322-.868 2.509-2.188 2.629z" fill="#0b2c41"/><path d="m131.382 155.182c-1.188.108-2.25-.778-2.358-1.967-.108-1.19.777-2.253 1.965-2.361s2.25.779 2.358 1.968-.777 2.252-1.965 2.36z" fill="#0b2c41"/><path d="m164.156 106.526c-1.033.094-1.956-.677-2.05-1.71-.094-1.034.675-1.959 1.708-2.052 1.032-.094 1.956.676 2.05 1.71s-.676 1.958-1.708 2.052z" fill="#0b2c41"/><path d="m150.476 39.9946c-1.126.1023-2.142-.7459-2.245-1.8731-.102-1.1272.745-2.1447 1.871-2.247s2.142.7458 2.245 1.873c.102 1.1272-.745 2.1448-1.871 2.2471z" fill="#0b2c41"/><path d="m73.1463 71.9054c-1.1577-.6786-1.5249-2.1345-.9249-3.2863.6775-1.1589 2.1317-1.5262 3.2823-.9253 1.1578.6786 1.5249 2.1344.925 3.2862-.6776 1.1589-2.1247 1.604-3.2824.9254z" fill="#0b2c41"/><g fill="#7ebdbf"><path d="m134.147 68.0177-1.542 2.4994 2.495 1.4427-2.901-.0577-.011 2.901-1.36-2.5648-2.495 1.4103 1.492-2.4478-2.499-1.4894 2.906.1121.011-2.901 1.36 2.557z"/><path d="m56.3496 47.4197-3.3452 1.0956 1.1911 3.2856-2.6219-2.3169-2.2707 2.6675.7184-3.4669-3.4463-.6196 3.3375-1.0949-1.1883-3.3407 2.6268 2.3713 2.2708-2.6675-.7227 3.4203z"/><path d="m148.134 29.7501c-1.09-.6371-1.428-1.9968-.862-3.0808.636-1.0903 1.994-1.4284 3.076-.8725 1.082.556 1.427 1.9968.862 3.0808-.636 1.0903-1.994 1.4285-3.076.8725z"/><path d="m112.774 46.4854c-.512-.2983-.673-.9499-.406-1.4601.298-.513.948-.6741 1.458-.4069s.674.9499.407 1.4601c-.298.5131-.949.6741-1.459.4069z"/><path d="m27.0013 94.6611c-.5125-.2983-.6735-.9499-.4067-1.4601.2978-.5131.9487-.6741 1.4583-.4069.5097.2672.6735.9499.4068 1.4601-.2979.513-.9487.6741-1.4584.4069z"/><path d="m79.9927 143.817c-.5125-.298-.6735-.949-.4067-1.46.2979-.513.9487-.674 1.4584-.407.5097.268.6735.95.4067 1.461-.2978.513-.9487.674-1.4584.406z"/><path d="m171.321 55.4535c-.513-.2983-.674-.9499-.407-1.4601.298-.513.949-.6741 1.458-.4069.51.2672.674.9499.407 1.4601-.298.513-.949.6741-1.458.4069z"/><path d="m76.6975 118.615c-.9787-.569-1.2861-1.814-.7766-2.788.5688-.98 1.8116-1.287 2.7849-.777s1.2862 1.814.7767 2.788c-.5688.98-1.8117 1.287-2.785.777z"/><path d="m76.4648 27.7252c-.8262-.4823-1.0854-1.5131-.6635-2.3348.4815-.827 1.5112-1.0863 2.332-.6638s1.0854 1.5131.6635 2.3348c-.4815.827-1.5112 1.0863-2.332.6638z"/><path d="m169.916 113.402c-.512-.299-.673-.95-.406-1.461.297-.513.948-.674 1.458-.406.51.267.673.949.407 1.46-.298.513-.949.674-1.459.407z"/><path d="m146.956 101.013c-.867-.505-1.14-1.607-.688-2.4701.503-.8678 1.604-1.1402 2.467-.6882.862.452 1.139 1.6069.688 2.4703-.504.867-1.605 1.14-2.467.688z"/><path d="m124.251 143.63c-.867-.505-1.139-1.607-.688-2.47.504-.868 1.605-1.141 2.467-.689.863.452 1.14 1.607.688 2.47-.503.868-1.604 1.141-2.467.689z"/><path d="m125.961 136.637c-.429-.249-.564-.794-.34-1.221.249-.429.793-.563 1.219-.34.426.224.563.794.34 1.221-.249.429-.793.564-1.219.34z"/></g></g></svg>

<svg width="185" height="195" viewBox="0 0 185 195" fill="none" xmlns="http://www.w3.org/2000/svg">
<g clip-path="url(#clip0_94_452)">
<path d="M81.1825 135.211C80.0953 134.574 79.7505 133.207 80.3139 132.125C80.9502 131.037 82.3158 130.692 83.3963 131.256C84.4836 131.894 84.8284 133.261 84.265 134.342C83.6287 135.431 82.2631 135.776 81.1825 135.211Z" fill="#0B2C41"/>
<path d="M119.187 106.372C117.351 105.293 116.766 102.987 117.719 101.152C118.797 99.3144 121.1 98.7289 122.925 99.6839C124.75 100.639 125.346 103.069 124.393 104.904C123.316 106.742 121.012 107.327 119.187 106.372Z" fill="#0B2C41"/>
<path d="M150.568 37.2116C149.472 36.6136 94.3214 14.177 94.3214 14.177L40.3663 85.1069L81.5599 133.494L130.917 153.337L163.968 104.458L150.568 37.2116Z" stroke="#0B2C41" stroke-miterlimit="10"/>
<path d="M94.3213 14.177L121.933 104.108L81.5598 133.494" stroke="#0B2C41" stroke-miterlimit="10"/>
<path d="M15.8882 83.1617C16.9839 83.7597 40.3663 85.107 40.3663 85.107" stroke="#0B2C41" stroke-miterlimit="10"/>
<path d="M131.103 174.514L130.917 153.337L150.568 37.2116L40.3664 85.107L121.933 104.108L163.968 104.458" stroke="#0B2C41" stroke-miterlimit="10"/>
<path d="M21.6871 80.7222L16.9839 83.7597L20.0648 88.3706L15.1677 85.8293L12.6833 90.8833L12.3836 85.2594L6.82607 85.7017L11.5293 82.6643L8.42582 77.977L13.421 80.5642L15.8376 75.5399L16.0992 81.0889L21.6871 80.7222Z" fill="#FFA135"/>
<path d="M101.398 12.7031L96.6946 15.7406L99.7677 20.3522L94.8707 17.8109L92.3862 22.8649L92.0943 17.2402L86.529 17.6833L91.2322 14.6459L88.1288 9.95864L93.1317 12.5451L95.5406 7.52155L95.8099 13.0698L101.398 12.7031Z" fill="#FFA135"/>
<path d="M139.141 175.955L133.901 177.912L135.928 183.073L131.678 179.549L128.18 183.958L129.092 178.404L123.559 177.645L128.805 175.679L126.764 170.441L131.099 174.036L134.52 169.642L133.608 175.117L139.141 175.955Z" fill="#FFA135"/>
<path d="M105.849 58.5816C104.765 57.9433 104.414 56.5801 104.981 55.494C105.619 54.4093 106.98 54.0582 108.065 54.6258C109.15 55.1935 109.5 56.6274 108.933 57.7135C108.296 58.7982 106.934 59.1492 105.849 58.5816Z" fill="#0B2C41"/>
<path d="M39.4164 87.3174C38.3328 86.6791 37.9818 85.3158 38.5486 84.2297C39.186 83.145 40.5476 82.794 41.6326 83.3616C42.7176 83.9292 43.0672 85.3632 42.5004 86.4493C41.863 87.534 40.5014 87.885 39.4164 87.3174Z" fill="#0B2C41"/>
<path d="M139.353 106.695C138.033 106.815 136.847 105.825 136.727 104.504C136.607 103.182 137.595 101.995 138.915 101.875C140.235 101.755 141.421 102.745 141.541 104.066C141.661 105.388 140.673 106.575 139.353 106.695Z" fill="#0B2C41"/>
<path d="M131.382 155.182C130.194 155.29 129.132 154.404 129.024 153.215C128.916 152.025 129.801 150.962 130.989 150.854C132.177 150.746 133.239 151.633 133.347 152.822C133.455 154.011 132.57 155.074 131.382 155.182Z" fill="#0B2C41"/>
<path d="M164.156 106.526C163.123 106.62 162.2 105.849 162.106 104.816C162.012 103.782 162.781 102.857 163.814 102.764C164.846 102.67 165.77 103.44 165.864 104.474C165.958 105.508 165.188 106.432 164.156 106.526Z" fill="#0B2C41"/>
<path d="M150.476 39.9946C149.35 40.0969 148.334 39.2487 148.231 38.1215C148.129 36.9943 148.976 35.9768 150.102 35.8745C151.228 35.7722 152.244 36.6203 152.347 37.7475C152.449 38.8747 151.602 39.8923 150.476 39.9946Z" fill="#0B2C41"/>
<path d="M73.1463 71.9054C71.9886 71.2268 71.6214 69.7709 72.2214 68.6191C72.8989 67.4602 74.3531 67.0929 75.5037 67.6938C76.6615 68.3724 77.0286 69.8282 76.4287 70.98C75.7511 72.1389 74.304 72.584 73.1463 71.9054Z" fill="#0B2C41"/>
<path d="M134.147 68.0177L132.605 70.5171L135.1 71.9598L132.199 71.9021L132.188 74.8031L130.828 72.2383L128.333 73.6486L129.825 71.2008L127.326 69.7114L130.232 69.8235L130.243 66.9225L131.603 69.4795L134.147 68.0177Z" fill="#7EBDBF"/>
<path d="M56.3496 47.4197L53.0044 48.5153L54.1955 51.8009L51.5736 49.484L49.3029 52.1515L50.0213 48.6846L46.575 48.065L49.9125 46.9701L48.7242 43.6294L51.351 46.0007L53.6218 43.3332L52.8991 46.7535L56.3496 47.4197Z" fill="#7EBDBF"/>
<path d="M148.134 29.7501C147.044 29.113 146.706 27.7533 147.272 26.6693C147.908 25.579 149.266 25.2409 150.348 25.7968C151.43 26.3528 151.775 27.7936 151.21 28.8776C150.574 29.9679 149.216 30.3061 148.134 29.7501Z" fill="#7EBDBF"/>
<path d="M112.774 46.4854C112.262 46.1871 112.101 45.5355 112.368 45.0253C112.666 44.5123 113.316 44.3512 113.826 44.6184C114.336 44.8856 114.5 45.5683 114.233 46.0785C113.935 46.5916 113.284 46.7526 112.774 46.4854Z" fill="#7EBDBF"/>
<path d="M27.0013 94.6611C26.4888 94.3628 26.3278 93.7112 26.5946 93.201C26.8924 92.6879 27.5433 92.5269 28.0529 92.7941C28.5626 93.0613 28.7264 93.744 28.4597 94.2542C28.1618 94.7672 27.511 94.9283 27.0013 94.6611Z" fill="#7EBDBF"/>
<path d="M79.9927 143.817C79.4802 143.519 79.3192 142.868 79.586 142.357C79.8839 141.844 80.5347 141.683 81.0444 141.95C81.5541 142.218 81.7179 142.9 81.4511 143.411C81.1533 143.924 80.5024 144.085 79.9927 143.817Z" fill="#7EBDBF"/>
<path d="M171.321 55.4535C170.808 55.1552 170.647 54.5036 170.914 53.9934C171.212 53.4804 171.863 53.3193 172.372 53.5865C172.882 53.8537 173.046 54.5364 172.779 55.0466C172.481 55.5596 171.83 55.7207 171.321 55.4535Z" fill="#7EBDBF"/>
<path d="M76.6975 118.615C75.7188 118.046 75.4114 116.801 75.9209 115.827C76.4897 114.847 77.7325 114.54 78.7058 115.05C79.6791 115.56 79.992 116.864 79.4825 117.838C78.9137 118.818 77.6708 119.125 76.6975 118.615Z" fill="#7EBDBF"/>
<path d="M76.4648 27.7252C75.6386 27.2429 75.3794 26.2121 75.8013 25.3904C76.2828 24.5634 77.3125 24.3041 78.1333 24.7266C78.9541 25.1491 79.2187 26.2397 78.7968 27.0614C78.3153 27.8884 77.2856 28.1477 76.4648 27.7252Z" fill="#7EBDBF"/>
<path d="M169.916 113.402C169.404 113.103 169.243 112.452 169.51 111.941C169.807 111.428 170.458 111.267 170.968 111.535C171.478 111.802 171.641 112.484 171.375 112.995C171.077 113.508 170.426 113.669 169.916 113.402Z" fill="#7EBDBF"/>
<path d="M146.956 101.013C146.089 100.508 145.816 99.406 146.268 98.5429C146.771 97.6751 147.872 97.4027 148.735 97.8547C149.597 98.3067 149.874 99.4616 149.423 100.325C148.919 101.192 147.818 101.465 146.956 101.013Z" fill="#7EBDBF"/>
<path d="M124.251 143.63C123.384 143.125 123.112 142.023 123.563 141.16C124.067 140.292 125.168 140.019 126.03 140.471C126.893 140.923 127.17 142.078 126.718 142.941C126.215 143.809 125.114 144.082 124.251 143.63Z" fill="#7EBDBF"/>
<path d="M125.961 136.637C125.532 136.388 125.397 135.843 125.621 135.416C125.87 134.987 126.414 134.853 126.84 135.076C127.266 135.3 127.403 135.87 127.18 136.297C126.931 136.726 126.387 136.861 125.961 136.637Z" fill="#7EBDBF"/>
</g>
<defs>
<clipPath id="clip0_94_452">
<rect width="178.666" height="168.218" fill="white" transform="translate(168.034 0.933716) rotate(84.8075)"/>
</clipPath>
</defs>
</svg>
